assets/role-border-bottom.381b5406.svg

<?xml version="1.0" encoding="UTF-8" standalone="no"?>
<!-- Created with Inkscape (http://www.inkscape.org/) -->

<svg
   width="600"
   height="600"
   viewBox="0 0 158.75 158.75"
   version="1.1"
   id="svg1195"
   inkscape:version="1.1 (c68e22c387, 2021-05-23)"
   sodipodi:docname="role-border-bottom.svg"
   inkscape:export-filename="C:\GitHub\web-app\src\assets\img\role-border.png"
   inkscape:export-xdpi="96"
   inkscape:export-ydpi="96"
   xmlns:inkscape="http://www.inkscape.org/namespaces/inkscape"
   xmlns:sodipodi="http://sodipodi.sourceforge.net/DTD/sodipodi-0.dtd"
   xmlns="http://www.w3.org/2000/svg"
   xmlns:svg="http://www.w3.org/2000/svg">
  <sodipodi:namedview
     id="namedview1197"
     pagecolor="#505050"
     bordercolor="#eeeeee"
     borderopacity="1"
     inkscape:pageshadow="0"
     inkscape:pageopacity="0"
     inkscape:pagecheckerboard="0"
     inkscape:document-units="px"
     showgrid="false"
     inkscape:snap-bbox="true"
     inkscape:object-paths="true"
     inkscape:snap-intersection-paths="true"
     inkscape:zoom="0.6299282"
     inkscape:cx="144.46091"
     inkscape:cy="247.64727"
     inkscape:window-width="1856"
     inkscape:window-height="1057"
     inkscape:window-x="56"
     inkscape:window-y="-8"
     inkscape:window-maximized="1"
     inkscape:current-layer="layer1"
     units="px"
     width="600px"
     inkscape:lockguides="false" />
  <defs
     id="defs1192">
    <clipPath
       clipPathUnits="userSpaceOnUse"
       id="clipPath125214">
      <rect
         style="opacity:1;fill:#16130e;fill-opacity:1;stroke:none;stroke-width:0.264583;stroke-miterlimit:4;stroke-dasharray:none;stroke-opacity:1"
         id="rect125216"
         width="158.75"
         height="238.125"
         x="0"
         y="0" />
    </clipPath>
    <clipPath
       clipPathUnits="userSpaceOnUse"
       id="clipPath3007">
      <rect
         style="fill:#4d4d4d;fill-opacity:1;stroke:none;stroke-width:0.432062;stroke-miterlimit:4;stroke-dasharray:none;stroke-opacity:1"
         id="rect3009"
         width="158.75"
         height="158.75"
         x="0"
         y="0" />
    </clipPath>
    <clipPath
       clipPathUnits="userSpaceOnUse"
       id="clipPath3011">
      <rect
         style="fill:#4d4d4d;fill-opacity:1;stroke:none;stroke-width:0.432062;stroke-miterlimit:4;stroke-dasharray:none;stroke-opacity:1"
         id="rect3013"
         width="158.75"
         height="158.75"
         x="0"
         y="0" />
    </clipPath>
    <clipPath
       clipPathUnits="userSpaceOnUse"
       id="clipPath3015">
      <rect
         style="fill:#4d4d4d;fill-opacity:1;stroke:none;stroke-width:0.432062;stroke-miterlimit:4;stroke-dasharray:none;stroke-opacity:1"
         id="rect3017"
         width="158.75"
         height="158.75"
         x="0"
         y="0" />
    </clipPath>
    <clipPath
       clipPathUnits="userSpaceOnUse"
       id="clipPath3019">
      <rect
         style="fill:#4d4d4d;fill-opacity:1;stroke:none;stroke-width:0.432062;stroke-miterlimit:4;stroke-dasharray:none;stroke-opacity:1"
         id="rect3021"
         width="158.75"
         height="158.75"
         x="0"
         y="0" />
    </clipPath>
    <clipPath
       clipPathUnits="userSpaceOnUse"
       id="clipPath3023">
      <rect
         style="fill:#4d4d4d;fill-opacity:1;stroke:none;stroke-width:0.432062;stroke-miterlimit:4;stroke-dasharray:none;stroke-opacity:1"
         id="rect3025"
         width="158.75"
         height="158.75"
         x="0"
         y="0" />
    </clipPath>
    <clipPath
       clipPathUnits="userSpaceOnUse"
       id="clipPath3027">
      <rect
         style="fill:#4d4d4d;fill-opacity:1;stroke:none;stroke-width:0.432062;stroke-miterlimit:4;stroke-dasharray:none;stroke-opacity:1"
         id="rect3029"
         width="158.75"
         height="158.75"
         x="0"
         y="0" />
    </clipPath>
    <clipPath
       clipPathUnits="userSpaceOnUse"
       id="clipPath3031">
      <rect
         style="fill:#4d4d4d;fill-opacity:1;stroke:none;stroke-width:0.432062;stroke-miterlimit:4;stroke-dasharray:none;stroke-opacity:1"
         id="rect3033"
         width="158.75"
         height="158.75"
         x="0"
         y="0" />
    </clipPath>
  </defs>
  <g
     inkscape:label="Warstwa 1"
     inkscape:groupmode="layer"
     id="layer1">
    <g
       id="g2783"
       transform="translate(-185.20833)">
      <g
         id="g1079"
         transform="rotate(90,171.97918,171.97916)">
        <path
           style="fill:#16130e;fill-opacity:1;stroke:none;stroke-width:0.264583px;stroke-linecap:butt;stroke-linejoin:miter;stroke-opacity:1"
           d="m 158.75002,68.791668 -5.29168,-5.291661 v -37.04167 h -5.29166 v -5.29167 h 5.29166 V 5.2916681 h -15.875 v 5.2916689 l -5.29166,-4e-6 V 5.2916668 H 95.250007 L 89.958347,0 h 68.791673 z"
           id="path1055"
           sodipodi:nodetypes="ccccccccccccccc" />
        <rect
           style="fill:#c9a66d;fill-opacity:1;stroke:none;stroke-width:0.264583;stroke-miterlimit:4;stroke-dasharray:none;stroke-opacity:1"
           id="rect1057"
           width="2.1166668"
           height="2.1166668"
           x="149.75417"
           y="6.879168" />
        <rect
           style="fill:#c9a66d;fill-opacity:1;stroke:none;stroke-width:0.264583;stroke-miterlimit:4;stroke-dasharray:none;stroke-opacity:1"
           id="rect1059"
           width="2.1166668"
           height="2.1166668"
           x="139.17084"
           y="17.462502" />
        <path
           style="opacity:0.5;fill:none;stroke:#bd924a;stroke-width:0.529167;stroke-linecap:butt;stroke-linejoin:miter;stroke-miterlimit:4;stroke-dasharray:none;stroke-opacity:1"
           d="m 147.63752,26.722917 -9.78957,-2e-6 -1e-5,-10.583331 h 4.7625 l 10e-6,4.7625 H 132.02711 V 11.1125"
           id="path1061"
           sodipodi:nodetypes="ccccccc" />
        <path
           style="opacity:0.5;fill:none;stroke:#bd924a;stroke-width:0.529167;stroke-linecap:butt;stroke-linejoin:miter;stroke-miterlimit:4;stroke-dasharray:none;stroke-opacity:1"
           d="m 95.514587,5.5562501 h 36.512523 v 5.2916669 h 5.82083 V 5.5562501 h 15.34583 V 20.902084 h -5.29166 v 5.820833 h 5.29166 l -1e-5,36.512501"
           id="path1063"
           sodipodi:nodetypes="ccccccccccc" />
        <path
           style="opacity:0.5;fill:none;stroke:#bd924a;stroke-width:0.529167;stroke-linecap:butt;stroke-linejoin:miter;stroke-miterlimit:4;stroke-dasharray:none;stroke-opacity:1"
           d="M 148.43127,5.8208335 V 10.31875 h 4.49792"
           id="path1065"
           sodipodi:nodetypes="ccc" />
        <path
           style="opacity:0.5;fill:none;stroke:#bd924a;stroke-width:0.264583px;stroke-linecap:butt;stroke-linejoin:miter;stroke-opacity:1"
           d="M 148.16669,7.8052083 H 138.11252"
           id="path1067" />
        <path
           style="opacity:0.5;fill:none;stroke:#bd924a;stroke-width:0.264583px;stroke-linecap:butt;stroke-linejoin:miter;stroke-opacity:1"
           d="M 131.76252,7.8052083 H 97.895847"
           id="path1069" />
        <path
           style="opacity:0.5;fill:none;stroke:#bd924a;stroke-width:0.529167;stroke-linecap:butt;stroke-linejoin:miter;stroke-miterlimit:4;stroke-dasharray:none;stroke-opacity:1"
           d="M 131.76252,10.847917 H 100.80626"
           id="path1071"
           sodipodi:nodetypes="cc" />
        <path
           style="opacity:0.5;fill:none;stroke:#bd924a;stroke-width:0.264583px;stroke-linecap:butt;stroke-linejoin:miter;stroke-opacity:1"
           d="m 150.94481,10.583331 v 10.05417"
           id="path1073" />
        <path
           style="opacity:0.5;fill:none;stroke:#bd924a;stroke-width:0.264583px;stroke-linecap:butt;stroke-linejoin:miter;stroke-opacity:1"
           d="m 150.94481,26.987501 v 33.86667"
           id="path1075" />
        <path
           style="opacity:0.5;fill:none;stroke:#bd924a;stroke-width:0.529167;stroke-linecap:butt;stroke-linejoin:miter;stroke-miterlimit:4;stroke-dasharray:none;stroke-opacity:1"
           d="m 147.90211,26.987501 -2e-5,30.95625"
           id="path1077"
           sodipodi:nodetypes="cc" />
      </g>
      <g
         id="g1131"
         transform="matrix(0,1,1,0,185.20836,-2e-5)">
        <path
           style="fill:#16130e;fill-opacity:1;stroke:none;stroke-width:0.264583px;stroke-linecap:butt;stroke-linejoin:miter;stroke-opacity:1"
           d="m 158.75002,68.791668 -5.29168,-5.291661 v -37.04167 h -5.29166 v -5.29167 h 5.29166 V 5.2916681 h -15.875 v 5.2916689 l -5.29166,-4e-6 V 5.2916668 H 95.250007 L 89.958347,0 h 68.791673 z"
           id="path1107"
           sodipodi:nodetypes="ccccccccccccccc" />
        <rect
           style="fill:#c9a66d;fill-opacity:1;stroke:none;stroke-width:0.264583;stroke-miterlimit:4;stroke-dasharray:none;stroke-opacity:1"
           id="rect1109"
           width="2.1166668"
           height="2.1166668"
           x="149.75417"
           y="6.879168" />
        <rect
           style="fill:#c9a66d;fill-opacity:1;stroke:none;stroke-width:0.264583;stroke-miterlimit:4;stroke-dasharray:none;stroke-opacity:1"
           id="rect1111"
           width="2.1166668"
           height="2.1166668"
           x="139.17084"
           y="17.462502" />
        <path
           style="opacity:0.5;fill:none;stroke:#bd924a;stroke-width:0.529167;stroke-linecap:butt;stroke-linejoin:miter;stroke-miterlimit:4;stroke-dasharray:none;stroke-opacity:1"
           d="m 147.63752,26.722917 -9.78957,-2e-6 -1e-5,-10.583331 h 4.7625 l 10e-6,4.7625 H 132.02711 V 11.1125"
           id="path1113"
           sodipodi:nodetypes="ccccccc" />
        <path
           style="opacity:0.5;fill:none;stroke:#bd924a;stroke-width:0.529167;stroke-linecap:butt;stroke-linejoin:miter;stroke-miterlimit:4;stroke-dasharray:none;stroke-opacity:1"
           d="m 95.514587,5.5562501 h 36.512523 v 5.2916669 h 5.82083 V 5.5562501 h 15.34583 V 20.902084 h -5.29166 v 5.820833 h 5.29166 l -1e-5,36.512501"
           id="path1115"
           sodipodi:nodetypes="ccccccccccc" />
        <path
           style="opacity:0.5;fill:none;stroke:#bd924a;stroke-width:0.529167;stroke-linecap:butt;stroke-linejoin:miter;stroke-miterlimit:4;stroke-dasharray:none;stroke-opacity:1"
           d="M 148.43127,5.8208335 V 10.31875 h 4.49792"
           id="path1117"
           sodipodi:nodetypes="ccc" />
        <path
           style="opacity:0.5;fill:none;stroke:#bd924a;stroke-width:0.264583px;stroke-linecap:butt;stroke-linejoin:miter;stroke-opacity:1"
           d="M 148.16669,7.8052083 H 138.11252"
           id="path1119" />
        <path
           style="opacity:0.5;fill:none;stroke:#bd924a;stroke-width:0.264583px;stroke-linecap:butt;stroke-linejoin:miter;stroke-opacity:1"
           d="M 131.76252,7.8052083 H 97.895847"
           id="path1121" />
        <path
           style="opacity:0.5;fill:none;stroke:#bd924a;stroke-width:0.529167;stroke-linecap:butt;stroke-linejoin:miter;stroke-miterlimit:4;stroke-dasharray:none;stroke-opacity:1"
           d="M 131.76252,10.847917 H 100.80626"
           id="path1123"
           sodipodi:nodetypes="cc" />
        <path
           style="opacity:0.5;fill:none;stroke:#bd924a;stroke-width:0.264583px;stroke-linecap:butt;stroke-linejoin:miter;stroke-opacity:1"
           d="m 150.94481,10.583331 v 10.05417"
           id="path1125" />
        <path
           style="opacity:0.5;fill:none;stroke:#bd924a;stroke-width:0.264583px;stroke-linecap:butt;stroke-linejoin:miter;stroke-opacity:1"
           d="m 150.94481,26.987501 v 33.86667"
           id="path1127" />
        <path
           style="opacity:0.5;fill:none;stroke:#bd924a;stroke-width:0.529167;stroke-linecap:butt;stroke-linejoin:miter;stroke-miterlimit:4;stroke-dasharray:none;stroke-opacity:1"
           d="m 147.90211,26.987501 -2e-5,30.95625"
           id="path1129"
           sodipodi:nodetypes="cc" />
      </g>
      <path
         style="fill:none;stroke:#bd924a;stroke-width:0.264583;stroke-miterlimit:4;stroke-dasharray:none;stroke-opacity:1"
         d="M 147.90209,100.80627 V 93.397938 L 201.6125,39.687528"
         id="path1135"
         sodipodi:nodetypes="ccc"
         clip-path="url(#clipPath3027)"
         transform="translate(185.20833)" />
      <path
         id="path1139"
         style="fill:none;stroke:#bd924a;stroke-width:0.264583;stroke-miterlimit:4;stroke-dasharray:none;stroke-opacity:1"
         d="M 105.83333,142.87502 79.375,169.33335 52.91667,142.87502"
         clip-path="url(#clipPath3019)"
         transform="translate(185.20833)" />
      <path
         style="fill:none;stroke:#bd924a;stroke-width:0.264583;stroke-miterlimit:4;stroke-dasharray:none;stroke-opacity:1"
         d="M 10.84792,100.80627 V 93.397938 L -42.8625,39.687528"
         id="path1143"
         sodipodi:nodetypes="ccc"
         clip-path="url(#clipPath3011)"
         transform="translate(185.20833)" />
      <path
         id="path1145"
         style="fill:none;stroke:#bd924a;stroke-width:0.264583;stroke-miterlimit:4;stroke-dasharray:none;stroke-opacity:1"
         d="M 15.875,105.83336 -50.27083,39.687518 v 0 m 259.29166,0 -66.14583,66.145832"
         sodipodi:nodetypes="ccccc"
         clip-path="url(#clipPath3007)"
         transform="translate(185.20833)" />
    </g>
  </g>
</svg>

<svg width="600" height="600" viewBox="0 0 158.75 158.75" xmlns="http://www.w3.org/2000/svg"><defs><clipPath clipPathUnits="userSpaceOnUse" id="d"><path style="fill:#4d4d4d;fill-opacity:1;stroke:none;stroke-width:.432062;stroke-miterlimit:4;stroke-dasharray:none;stroke-opacity:1" d="M0 0h158.75v158.75H0z"/></clipPath><clipPath clipPathUnits="userSpaceOnUse" id="c"><path style="fill:#4d4d4d;fill-opacity:1;stroke:none;stroke-width:.432062;stroke-miterlimit:4;stroke-dasharray:none;stroke-opacity:1" d="M0 0h158.75v158.75H0z"/></clipPath><clipPath clipPathUnits="userSpaceOnUse" id="b"><path style="fill:#4d4d4d;fill-opacity:1;stroke:none;stroke-width:.432062;stroke-miterlimit:4;stroke-dasharray:none;stroke-opacity:1" d="M0 0h158.75v158.75H0z"/></clipPath><clipPath clipPathUnits="userSpaceOnUse" id="a"><path style="fill:#4d4d4d;fill-opacity:1;stroke:none;stroke-width:.432062;stroke-miterlimit:4;stroke-dasharray:none;stroke-opacity:1" d="M0 0h158.75v158.75H0z"/></clipPath></defs><path style="fill:#16130e;fill-opacity:1;stroke:none;stroke-width:.264583px;stroke-linecap:butt;stroke-linejoin:miter;stroke-opacity:1" d="m158.75 68.792-5.292-5.292V26.458h-5.291v-5.291h5.291V5.292h-15.875v5.291h-5.291V5.292H95.25L89.958 0h68.792z" transform="rotate(90 79.375 79.375)"/><path style="fill:#c9a66d;fill-opacity:1;stroke:none;stroke-width:.264583;stroke-miterlimit:4;stroke-dasharray:none;stroke-opacity:1" d="M149.754 6.879h2.117v2.117h-2.117zm-10.583 10.584h2.117v2.117h-2.117z" transform="rotate(90 79.375 79.375)"/><path style="opacity:.5;fill:none;stroke:#bd924a;stroke-width:.529167;stroke-linecap:butt;stroke-linejoin:miter;stroke-miterlimit:4;stroke-dasharray:none;stroke-opacity:1" d="M147.638 26.723h-9.79V16.14h4.762v4.762h-10.583v-9.79" transform="rotate(90 79.375 79.375)"/><path style="opacity:.5;fill:none;stroke:#bd924a;stroke-width:.529167;stroke-linecap:butt;stroke-linejoin:miter;stroke-miterlimit:4;stroke-dasharray:none;stroke-opacity:1" d="M95.515 5.556h36.512v5.292h5.82V5.556h15.347v15.346h-5.292v5.82h5.292v36.513" transform="rotate(90 79.375 79.375)"/><path style="opacity:.5;fill:none;stroke:#bd924a;stroke-width:.529167;stroke-linecap:butt;stroke-linejoin:miter;stroke-miterlimit:4;stroke-dasharray:none;stroke-opacity:1" d="M148.431 5.82v4.499h4.498" transform="rotate(90 79.375 79.375)"/><path style="opacity:.5;fill:none;stroke:#bd924a;stroke-width:.264583px;stroke-linecap:butt;stroke-linejoin:miter;stroke-opacity:1" d="M148.167 7.805h-10.054m-6.35 0H97.896" transform="rotate(90 79.375 79.375)"/><path style="opacity:.5;fill:none;stroke:#bd924a;stroke-width:.529167;stroke-linecap:butt;stroke-linejoin:miter;stroke-miterlimit:4;stroke-dasharray:none;stroke-opacity:1" d="M131.763 10.848h-30.957" transform="rotate(90 79.375 79.375)"/><path style="opacity:.5;fill:none;stroke:#bd924a;stroke-width:.264583px;stroke-linecap:butt;stroke-linejoin:miter;stroke-opacity:1" d="M150.945 10.583v10.055m0 6.35v33.866" transform="rotate(90 79.375 79.375)"/><path style="opacity:.5;fill:none;stroke:#bd924a;stroke-width:.529167;stroke-linecap:butt;stroke-linejoin:miter;stroke-miterlimit:4;stroke-dasharray:none;stroke-opacity:1" d="M147.902 26.988v30.956" transform="rotate(90 79.375 79.375)"/><path style="fill:#16130e;fill-opacity:1;stroke:none;stroke-width:.264583px;stroke-linecap:butt;stroke-linejoin:miter;stroke-opacity:1" d="m158.75 68.792-5.292-5.292V26.458h-5.291v-5.291h5.291V5.292h-15.875v5.291h-5.291V5.292H95.25L89.958 0h68.792z" transform="matrix(0 1 1 0 0 0)"/><path style="fill:#c9a66d;fill-opacity:1;stroke:none;stroke-width:.264583;stroke-miterlimit:4;stroke-dasharray:none;stroke-opacity:1" d="M149.754 6.879h2.117v2.117h-2.117zm-10.583 10.584h2.117v2.117h-2.117z" transform="matrix(0 1 1 0 0 0)"/><path style="opacity:.5;fill:none;stroke:#bd924a;stroke-width:.529167;stroke-linecap:butt;stroke-linejoin:miter;stroke-miterlimit:4;stroke-dasharray:none;stroke-opacity:1" d="M147.638 26.723h-9.79V16.14h4.762v4.762h-10.583v-9.79" transform="matrix(0 1 1 0 0 0)"/><path style="opacity:.5;fill:none;stroke:#bd924a;stroke-width:.529167;stroke-linecap:butt;stroke-linejoin:miter;stroke-miterlimit:4;stroke-dasharray:none;stroke-opacity:1" d="M95.515 5.556h36.512v5.292h5.82V5.556h15.347v15.346h-5.292v5.82h5.292v36.513" transform="matrix(0 1 1 0 0 0)"/><path style="opacity:.5;fill:none;stroke:#bd924a;stroke-width:.529167;stroke-linecap:butt;stroke-linejoin:miter;stroke-miterlimit:4;stroke-dasharray:none;stroke-opacity:1" d="M148.431 5.82v4.499h4.498" transform="matrix(0 1 1 0 0 0)"/><path style="opacity:.5;fill:none;stroke:#bd924a;stroke-width:.264583px;stroke-linecap:butt;stroke-linejoin:miter;stroke-opacity:1" d="M148.167 7.805h-10.054m-6.35 0H97.896" transform="matrix(0 1 1 0 0 0)"/><path style="opacity:.5;fill:none;stroke:#bd924a;stroke-width:.529167;stroke-linecap:butt;stroke-linejoin:miter;stroke-miterlimit:4;stroke-dasharray:none;stroke-opacity:1" d="M131.763 10.848h-30.957" transform="matrix(0 1 1 0 0 0)"/><path style="opacity:.5;fill:none;stroke:#bd924a;stroke-width:.264583px;stroke-linecap:butt;stroke-linejoin:miter;stroke-opacity:1" d="M150.945 10.583v10.055m0 6.35v33.866" transform="matrix(0 1 1 0 0 0)"/><path style="opacity:.5;fill:none;stroke:#bd924a;stroke-width:.529167;stroke-linecap:butt;stroke-linejoin:miter;stroke-miterlimit:4;stroke-dasharray:none;stroke-opacity:1" d="M147.902 26.988v30.956" transform="matrix(0 1 1 0 0 0)"/><path style="fill:none;stroke:#bd924a;stroke-width:.264583;stroke-miterlimit:4;stroke-dasharray:none;stroke-opacity:1" d="M147.902 100.806v-7.408l53.71-53.71" clip-path="url(#a)"/><path style="fill:none;stroke:#bd924a;stroke-width:.264583;stroke-miterlimit:4;stroke-dasharray:none;stroke-opacity:1" d="m105.833 142.875-26.458 26.458-26.458-26.458" clip-path="url(#b)"/><path style="fill:none;stroke:#bd924a;stroke-width:.264583;stroke-miterlimit:4;stroke-dasharray:none;stroke-opacity:1" d="M10.848 100.806v-7.408l-53.71-53.71" clip-path="url(#c)"/><path style="fill:none;stroke:#bd924a;stroke-width:.264583;stroke-miterlimit:4;stroke-dasharray:none;stroke-opacity:1" d="m15.875 105.833-66.146-66.145m259.292 0-66.146 66.145" clip-path="url(#d)"/></svg>
